actions/24/edit-clear-symbolic.svg

<?xml version="1.0" encoding="UTF-8" standalone="no"?>
<svg
   width="24"
   height="24"
   version="1.1"
   id="svg4"
   sodipodi:docname="edit-clear-symbolic.svg"
   inkscape:version="1.1.2 (0a00cf5339, 2022-02-04)"
   xmlns:inkscape="http://www.inkscape.org/namespaces/inkscape"
   xmlns:sodipodi="http://sodipodi.sourceforge.net/DTD/sodipodi-0.dtd"
   xmlns="http://www.w3.org/2000/svg"
   xmlns:svg="http://www.w3.org/2000/svg">
  <defs
     id="defs8" />
  <sodipodi:namedview
     id="namedview6"
     pagecolor="#000000"
     bordercolor="#666666"
     borderopacity="1.0"
     inkscape:pageshadow="2"
     inkscape:pageopacity="0"
     inkscape:pagecheckerboard="0"
     showgrid="false"
     inkscape:zoom="28.416667"
     inkscape:cx="11.982405"
     inkscape:cy="11.964809"
     inkscape:window-width="1886"
     inkscape:window-height="967"
     inkscape:window-x="0"
     inkscape:window-y="29"
     inkscape:window-maximized="1"
     inkscape:current-layer="svg4" />
  <path
     fill="#eeeeec"
     d="M 9.79,4 C 9.650728,4.0400176 9.5257526,4.119863 9.43,4.23 l -7.54,7.71 c -0.2865617,0.31364 -0.2640351,0.80472 0.05,1.09 l 7.31,6.72 c 0.1322584,0.13769 0.3107683,0.219805 0.5,0.23 h 11.48 c 0.424598,0.0092 0.772872,-0.339121 0.77,-0.77 V 4.77 C 22.002872,4.3391206 21.654598,3.9908466 21.23,4 H 9.97 C 9.940027,3.99818 9.909973,3.99818 9.88,4 9.850027,3.99818 9.819973,3.99818 9.79,4 Z m 1.95,3.27 2.278495,2.2005241 0.712807,-0.014851 v 0 L 16.96,7.27 19.09,9.4 16.854032,11.679983 v 0 L 16.91557,12.37572 19.09,14.67 l -2.13,2.04 -2.246025,-2.202666 -0.661747,-0.03044 v 0 L 11.74,16.71 9.65,14.62 11.888514,12.311259 v 0 L 11.868034,11.652826 9.65,9.4 Z"
     id="path2"
     sodipodi:nodetypes="cccccccccccccccccccccccccccccccccc" />
</svg>

<svg xmlns="http://www.w3.org/2000/svg" width="24" height="24" version="1.1">
 <path fill="#eeeeec" d="M 9.79,4 A 0.754,0.765 0 0 0 9.43,4.23 L 1.89,11.94 A 0.754,0.765 0 0 0 1.94,13.03 L 9.25,19.75 A 0.754,0.765 0 0 0 9.75,19.98 H 21.23 A 0.754,0.765 0 0 0 22,19.21 V 4.77 A 0.754,0.765 0 0 0 21.23,4 H 9.97 A 0.754,0.765 0 0 0 9.88,4 0.754,0.765 0 0 0 9.79,4 Z M 11.74,7.27 14.37,9.81 16.96,7.27 19.09,9.4 16.55,11.99 19.09,14.67 16.96,16.71 14.37,14.17 11.74,16.71 9.65,14.62 12.2,11.99 9.65,9.4 Z"/>
</svg>
